X: 593
T: Thompson's Reel   #2
R: reel
%S: s:2 b:10(5+5)
B: Francis O'Neill: "The Dance Music of Ireland" (1907) #593
Z: Frank Nordberg - http://www.musicaviva.com
F: http://www.musicaviva.com/abc/tunes/ireland/oneill-1001/0593/oneill-1001-0593-1.abc
M: C|
L: 1/8
K: Gm
"^A"[|] (dc) \
|: BGFE (DC)C2 | DGG^F GABc | dBcA BGAF | DGG^F [1 GBdc :|[2 G2G2 |]
"^B"\
|:: (3BcB (dB) fBbB |[1,3 (3BcB (df) gdfd :|[2 c=Bcd (_BG)G2 :| b2 (bg) fdcd | DGG^F G2 |]
